X: 1
T: Ol kaunis kes\"ailta
T: One Summer Evening
O: Trad Finland
Z: 2004 John Chambers <jc@trillian.mit.edu>
M: C|
L: 1/4
K: A
C \
| "A"EE "E7"DD | "A"C2 EA | cc/B/ "D"AF | "A"E3 C \
| "A"EE "E7"DD | "A"C2 EA | "F#m"cc/B/ "B7"AF | "E"E3 E |
| "E7"E>G BB | "A"A2 CE | "Bm"E>D "E7"B,B, | "A"C3 E \
| "E7"E>G BB | "F#m"A2 "F#7"CE | "Bm"E>D "E7"B,B, | "A"A,3 |]
